!!!COM: Music21
!!!OTL: mazurka_Rosina
!!!OMV: mazurka_Rosina
**kern
*clefG2
*k[f#]
*G:
*M3/4
=1
8a
8b
8cc
=
4dd
8.eeL
16ddJk
8.bL
16gJk
=
8.dL
16gJk
8.bL
16ccJk
8.ddL
16bJk
=
8.ccL
16bJk
8.aL
16gJk
8.f#L
16gJk
=
12bL
12cc
12bJ
8.gL
16aJk
8.bL
16ccJk
=
4dd
8.eeL
16ddJk
8.bL
16gJk
!!linebreak:original
=
8.dL
16gJk
8.bL
16ccJk
8.ddL
16bJk
=
8.ccL
16bJk
8.aL
16gJk
16f#KL
8.dJ
=
[4.g
4.ryy
=||
*M3/4
8a
8b
8cc
=
4dd
8.eeL
16ddJk
8.bL
16gJk]
=
8.dL
16gJk
8.bL
16ccJk
8.ddL
16bJk
!!linebreak:original
=
8.ccL
16bJk
8.aL
16gJk
8.f#L
16gJk
=
12bL
12cc
12bJ
8.gL
16aJk
8.bL
16ccJk
=
4dd
8.eeL
16ddJk
8.bL
16gJk
=
8.dL
16gJk
8.bL
16ccJk
8.ddL
16bJk
=
8.ccL
16bJk
8.aL
16gJk
16f#KL
8.dJ
=
[4.g
4.ryy
!!linebreak:original
=||
8g]
12dL
12e
12f#J
4.ryy
=
4g
8.bL
16gJk
8.bL
16gJk
=
8.dL
16gJk
8.bL
16gJk
8.bL
16gJk
=
8.dL
16f#Jk
8.aL
16gJk
8.f#L
16gJk
=
12bL
12cc
12bJ
8.gL
16dJk
12dL
12e
12f#J
=
4g
8.bL
16gJk
8.bL
16gJk
!!linebreak:original
=
8.dL
16gJk
8.bL
16ccJk
8.bL
16gJk
=
8.dL
16f#Jk
8.aL
16gJk
16f#KL
8.dJ
=
4.g
4.ryy
=||
8g
12dL
12e
12f#J
4.ryy
=
4g
8.bL
16gJk
8.bL
16gJk
=
8.dL
16gJk
8.bL
16gJk
8.bL
16gJk
!!linebreak:original
=
8.dL
16f#Jk
8.aL
16gJk
8.f#L
16gJk
=
12bL
12cc
12bJ
8.gL
16dJk
12dL
12e
12f#J
=
4g
8.bL
16gJk
8.bL
16gJk
=
8.dL
16gJk
8.bL
16ccJk
8.bL
16gJk
=
8.dL
16f#Jk
8.aL
16gJk
16f#KL
8.dJ
=
4.g
4.ryy
!!linebreak:original
=||
*k[f#c#]
*D:
8ee
8ff#
8gg
4.ryy
=
4aa
8bbL
8aaJ
8ff#L
8ddJ
=
8aL
8ddJ
8ff#L
8ggJ
8aaL
8ff#J
=
8ggL
8ff#J
8eeL
8ddJ
8cc#L
8ddJ
=
16ff#LL
16ggJ
8ff#J
8ddL
8eeJ
8ff#L
8ggJ
=
16aaLL
16bbJ
8aaJ
8bbL
8aaJ
16ff#LL
16eeJ
8ddJ
!!linebreak:original
=
8aL
8ddJ
8ff#L
8ggJ
8aaL
8ff#J
=
8ggL
8ff#J
8eeL
8ddJ
8cc#L
8aJ
=
4dd
8dd
4.ryy
=||
8ee
8ff#
8gg
4.ryy
=
4aa
8bbL
8aaJ
8ff#L
8ddJ
=
8aL
8ddJ
8ff#L
8ggJ
8aaL
8ff#J
=
8ggL
8ff#J
8eeL
8ddJ
8cc#L
8ddJ
!!linebreak:original
=
16ff#LL
16ggJ
8ff#J
8ddL
8eeJ
8ff#L
8ggJ
=
16aaLL
16bbJ
8aaJ
8bbL
8aaJ
16ff#LL
16eeJ
8ddJ
=
8aL
8ddJ
8ff#L
8ggJ
8aaL
8ff#J
=
8ggL
8ff#J
8eeL
8ddJ
8cc#L
8aJ
=
4dd
8dd
4.ryy
=||
8a
8b
8cc#
4.ryy
!!linebreak:original
=
4dd
8ff#L
8ddJ
16ff#LL
16eeJ
8ddJ
=
8aL
8ddJ
8ff#L
8ddJ
8ff#L
8ddJ
=
8aL
8cc#J
8eeL
8ddJ
8cc#L
8ddJ
=
16ff#LL
16ggJ
8ff#J
4dd
16aLL
16bJ
8cc#J
=
16ddLL
16eeJ
8ddJ
8ff#L
8ddJ
8f#L
8ddJ
=
8aL
8ddJ
16ff#LL
16eeJ
8ddJ
8f#L
8ddJ
!!pagebreak:original
=
8aL
8cc#J
8eeL
8cc#J
16aLL
16bJ
8cc#J
=
4.dd
4.ryy
=||
8a
8b
8cc#
4.ryy
=
4dd
8ff#L
8ddJ
16ff#LL
16eeJ
8ddJ
=
8aL
8ddJ
8ff#L
8ddJ
8ff#L
8ddJ
=
8aL
8cc#J
8eeL
8ddJ
8cc#L
8ddJ
=
16ff#LL
16ggJ
8ff#J
4dd
16aLL
16bJ
8cc#J
!!linebreak:original
=
16ddLL
16eeJ
8ddJ
8ff#L
8ddJ
8f#L
8ddJ
=
8aL
8ddJ
16ff#LL
16eeJ
8ddJ
8f#L
8ddJ
=
8aL
8cc#J
8eeL
8cc#J
16aLL
16bJ
8cc#J
=
4.dd
4.ryy
=||
*-
